public/assets/ic_group_24px.svg

<svg height="15.273" viewBox="0 0 24 15.273" width="24" xmlns="http://www.w3.org/2000/svg"><path d="m17.364 11.545a3.273 3.273 0 1 0 -3.273-3.273 3.259 3.259 0 0 0 3.273 3.273zm-8.727 0a3.273 3.273 0 1 0 -3.273-3.272 3.259 3.259 0 0 0 3.272 3.272zm0 2.182c-2.542 0-7.637 1.273-7.637 3.818v2.727h15.273v-2.727c0-2.545-5.095-3.818-7.637-3.818zm8.727 0c-.316 0-.676.022-1.058.055a4.6 4.6 0 0 1 2.149 3.764v2.727h6.545v-2.728c0-2.545-5.095-3.818-7.636-3.818z" transform="translate(-1 -5)"/></svg>

<svg xmlns="http://www.w3.org/2000/svg" width="24" height="15.273" viewBox="0 0 24 15.273">
  <path id="ic_group_24px" d="M17.364,11.545a3.273,3.273,0,1,0-3.273-3.273A3.259,3.259,0,0,0,17.364,11.545Zm-8.727,0A3.273,3.273,0,1,0,5.364,8.273,3.259,3.259,0,0,0,8.636,11.545Zm0,2.182C6.095,13.727,1,15,1,17.545v2.727H16.273V17.545C16.273,15,11.178,13.727,8.636,13.727Zm8.727,0c-.316,0-.676.022-1.058.055a4.6,4.6,0,0,1,2.149,3.764v2.727H25V17.545C25,15,19.905,13.727,17.364,13.727Z" transform="translate(-1 -5)"/>
</svg>
